X:4569
T:Navvy on the Line
O:england
M:4/4
A:North-West
R:Hornpipe
K:A
cd|\
eagf edcB| AcEA c2BA| GBEG B2AG| AEFG ABcd|\
eagf edcB| ceEA c2BA| GABc defg| a2A2 A2::\
BA|\
GBEG B2AG| AcEA c2BA| GBEG B2AG| AEFG ABcd|\
eagf edcB| AcEA c2BA| GABc defg| a2A2 A2:|


